X:1
T:Invention #4 in D minor Upper Hand only
T:J.S. Bach (BWV 775)
T:Transcribed by Mike Magatagan 2012 1 of 2 Mandolin Parts by Mike Haller 2015 
T:Invention # 4  by J.S. Bach (BWV 775) for Piano Mike Magatagan (magataganm@cox.net or MMagatagan on http:\\www.MuseScore.com
T:Invention # 4  by J.S. Bach (BWV 775) for Piano Mike Magatagan (magataganm@cox.net or MMagatagan on http:\\www.MuseScore.com
T:Invention # 4  by J.S. Bach (BWV 775) for Piano Mike Magatagan (magataganm@cox.net or MMagatagan on http:\\www.MuseScore.com
Z:Invention # 4  by J.S. Bach (BWV 775) for Piano
Z:Mike Magatagan (magataganm@cox.net or MMagatagan on http:\\www.MuseScore.com
%%score 1 2
L:1/8
Q:1/4=96
M:3/8
K:F
V:1 treble nm="Mandolin" snm="Mdn."
V:2 tab stafflines=4 strings=G3,D4,A4,E5 nostems nm="Mandolin" snm="Mdn."
V:1
"^Allegro (ca. 96)" D/E/F/G/A/B/ | _D/B/A/G/F/E/ | FAd | G_de | d/e/f/g/a/b/ | _d/b/a/g/f/e/ | %6
 f/d/e/f/g/a/ | B/a/g/f/e/d/ | e/c/d/e/f/g/ | A/g/f/e/d/c/ | d/e/f/d/e/f/ | G z z | c/d/e/c/d/e/ | %13
 F2 B- | BPAG | c/B/A/G/F/E/ | F/G<PGF/ | Fcc | Pc3- | c3- | c3- | c/B/A/G/F/E/ | c/D/E/_G/=G/A/ | %23
 B/A/G/F/E/D/ | B/C/D/E/F/G/ | A/=B/c/d/e/f/ | _A/f/e/d/c/=B/ | c/=B/d/c/B/A/ | _A/=A/_A/_G/E/D/ | %29
 C/D/E/_G/_A/=A/ | D/c/=B/A/_A/_G/ | E/_G/_A/=A/=B/c/ | _G/e/d/c/=B/A/ | _A/=A/=B/c/d/e/ | %34
 A/f/e/d/c/=B/ | a/_a/_g/e/=a- | a/d<P=BA/ | A>AB/c/ | D_GA | B/G/A/B/c/d/ | E/d/c/B/A/G/ | %41
 Af/e/f | G e2 | d/e/f/g/a/b/ | _d/b/a/g/f/e/ | fdG- | G/d/_d/e/A/d/ | d/=B<P_d=d/ | d/c/B/A/G/F/ | %49
 B/_D/=D/E/F/G/ | A/d/FE/D/ | D3 |] %52
V:2
 !3!D/ !3!E/ !3!F/ !3!G/ !2!A/ !2!B/ | !4!_D/ !2!B/ !2!A/ !3!G/ !3!F/ !3!E/ | !3!F !2!A !2!d | %3
 !3!G !2!_d !1!e | !2!d/ !1!e/ !1!f/ !1!g/ !1!a/ !1!b/ | !2!_d/ !1!b/ !1!a/ !1!g/ !1!f/ !1!e/ | %6
 !1!f/ !2!d/ !1!e/ !1!f/ !1!g/ !1!a/ | !2!B/ !1!a/ !1!g/ !1!f/ !1!e/ !2!d/ | %8
 !1!e/ !2!c/ !2!d/ !1!e/ !1!f/ !1!g/ | !2!A/ !1!g/ !1!f/ !1!e/ !2!d/ !2!c/ | %10
 !2!d/ !1!e/ !1!f/ !2!d/ !1!e/ !1!f/ | !3!G x x | !2!c/ !2!d/ !1!e/ !2!c/ !2!d/ !1!e/ | %13
 !3!F2 !2!B- | !2!B P!2!A !3!G | !2!c/ !2!B/ !2!A/ !3!G/ !3!F/ !3!E/ | !3!F/ !3!G/ P!3!G3/2 !3!F/ | %17
 !3!F !2!c !2!c | P!2!c3- | !2!c3- | !2!c3- | !2!c/ !2!B/ !2!A/ !3!G/ !3!F/ !3!E/ | %22
 !2!c/ !3!D/ !3!E/ !3!_G/ !3!=G/ !2!A/ | !2!B/ !2!A/ !3!G/ !3!F/ !3!E/ !3!D/ | %24
 !2!B/ !4!C/ !3!D/ !3!E/ !3!F/ !3!G/ | !2!A/ !2!=B/ !2!c/ !2!d/ !1!e/ !1!f/ | %26
 !3!_A/ !1!f/ !1!e/ !2!d/ !2!c/ !2!=B/ | !2!c/ !2!=B/ !2!d/ !2!c/ !2!B/ !2!A/ | %28
 !3!_A/ !2!=A/ !3!_A/ !3!_G/ !3!E/ !3!D/ | !4!C/ !3!D/ !3!E/ !3!_G/ !3!_A/ !2!=A/ | %30
 !3!D/ !2!c/ !2!=B/ !2!A/ !3!_A/ !3!_G/ | !3!E/ !3!_G/ !3!_A/ !2!=A/ !2!=B/ !2!c/ | %32
 !3!_G/ !1!e/ !2!d/ !2!c/ !2!=B/ !2!A/ | !3!_A/ !2!=A/ !2!=B/ !2!c/ !2!d/ !1!e/ | %34
 !2!A/ !1!f/ !1!e/ !2!d/ !2!c/ !2!=B/ | !1!a/ !1!_a/ !1!_g/ !1!e/ !1!=a- | %36
 !1!a/ !2!d/ P!2!=B3/2 !2!A/ | !2!A3/2 !2!A/ !2!B/ !2!c/ | !3!D !3!_G !2!A | %39
 !2!B/ !3!G/ !2!A/ !2!B/ !2!c/ !2!d/ | !3!E/ !2!d/ !2!c/ !2!B/ !2!A/ !3!G/ | %41
 !2!A !1!f/ !1!e/ !1!f | !3!G !1!e2 | !2!d/ !1!e/ !1!f/ !1!g/ !1!a/ !1!b/ | %44
 !2!_d/ !1!b/ !1!a/ !1!g/ !1!f/ !1!e/ | !1!f !2!d !3!G- | !3!G/ !2!d/ !2!_d/ !1!e/ !2!A/ !2!d/ | %47
 !2!d/ !2!=B/ P!2!_d3/2 !2!=d/ | !2!d/ !2!c/ !2!B/ !2!A/ !3!G/ !3!F/ | %49
 !2!B/ !4!_D/ !3!=D/ !3!E/ !3!F/ !3!G/ | !2!A/ !2!d/ !3!F/ x/ !3!E/ !3!D/ | !3!D3 |] %52

